packages/web/app/assets/images/tamanu_logo_left_icon_blue.svg

<svg fill="none" height="34" viewBox="0 0 140 34" width="140" xmlns="http://www.w3.org/2000/svg"><path clip-rule="evenodd" d="m15.6077 5.41948h2.8083v2.87373h2.8087v2.87369h-2.8087v2.8737h-2.8083v-2.8737h-2.8084v-2.87369h2.8084z" fill="#326699" fill-rule="evenodd"/><path clip-rule="evenodd" d="m9.48658 9.55986c0 2.03804.76442 4.11264 2.21972 5.78914 1.3069 1.5057 2.8206 2.9988 4.3344 4.4923l.972.96.9724-.96c1.5134-1.4935 3.0271-2.9866 4.334-4.4923 1.4553-1.6765 2.2197-3.7515 2.2197-5.78914 0-1.92591-.6932-3.82389-2.1447-5.30914-1.4853-1.52026-3.4336-2.28079-5.3814-2.28079-1.9479 0-3.8957.76053-5.3814 2.28079-1.4511 1.48525-2.14472 3.38323-2.14472 5.30914zm7.52612 13.99754c-2.2474-2.3004-4.7462-4.6001-6.7425-6.8998-3.49777-4.0289-3.72424-9.98916 0-13.79967 3.7238-3.810506 9.7612-3.810506 13.4854 0 3.7238 3.81051 3.4973 9.77037 0 13.79967-1.9971 2.2997-4.4955 4.5994-6.7429 6.8998z" fill="#fc0" fill-rule="evenodd"/><path clip-rule="evenodd" d="m19.4515 27.5939-.9385-1.0902c.8005.0331 1.5468-.674 2.3292-.0409 1.162.9403 2.377 1.6139 5.03 2.1045.4387.0811-.2426.6189-2.4615.4348-1.8664-.1546.1488.4056-2.1974.1833-.8155-.0775-.3791.1165 1.1116.4045.747.1444.4833.8125-3.577.5555-2.7546-.1739-3.2759-.0767-6.8929.0795-1.2146.0523-3.15248-.502-1.1366-.9187 1.1108-.2294-2.70644-.4733-2.70644-.7821 0-.3176 1.88019-.7138 2.71644-.973 1.5753-.4887 2.878-1.2272 3.4678-1.6922 2.0924-1.6502 2.5773.3666 5.2553 1.735z" fill="#326699" fill-rule="evenodd"/><path clip-rule="evenodd" d="m31.358 28.9566c1.6845.4686 2.6607 1.0253 2.6607 1.6225 0 1.6686-7.6157 3.0209-17.0093 3.0209-9.39406 0-17.0094-1.3523-17.0094-3.0209 0-.5972.97662-1.1539 2.66071-1.6225-.85281.3206-1.32766.6755-1.32766 1.0485 0 1.4361 7.0186 2.6003 15.67635 2.6003 8.6577 0 15.6763-1.1642 15.6763-2.6003 0-.373-.4745-.7279-1.3277-1.0485z" fill="#fc0" fill-rule="evenodd"/><path clip-rule="evenodd" d="m28.4891 28.7795c1.3473.3109 2.1282.6799 2.1282 1.0753 0 1.1056-6.0928 2.0019-13.6082 2.0019-7.51534 0-13.60847-.8963-13.60847-2.0019 0-.3954.7813-.7644 2.12897-1.0753-.68249.2129-1.06237.4478-1.06237.6953 0 .9517 5.61517 1.7229 12.54187 1.7229 6.9268 0 12.542-.7712 12.542-1.7229 0-.2475-.3803-.4824-1.062-.6953z" fill="#fc0" fill-rule="evenodd"/><g fill="#326699"><path d="m42.1642 7.67574h3.603v5.24486h2.1409v3.0779h-2.1409v11.1322h-3.603v-11.1322h-1.8427v-3.0779h1.8427z"/><path d="m56.6909 15.8344c-1.1199 0-2.0503.3881-2.7864 1.1685-.7402.7762-1.1107 1.7748-1.1107 2.9925 0 1.2267.3747 2.2351 1.129 3.0286.7543.7901 1.6798 1.1865 2.7822 1.1865 1.1332 0 2.0769-.3882 2.8221-1.1685.7494-.7762 1.1249-1.797 1.1249-3.0598 0-1.2357-.3755-2.2343-1.1249-3.0023-.7452-.7623-1.6939-1.1455-2.8362-1.1455zm3.7983-2.9178h3.6038v14.2109h-3.6038v-1.5123c-.7045.6606-1.414 1.1332-2.1226 1.4228-.7087.2905-1.4813.4382-2.3079.4382-1.8651 0-3.4726-.7098-4.8317-2.1326-1.3592-1.4187-2.0371-3.1845-2.0371-5.2941 0-2.19.6597-3.9837 1.9739-5.3843 1.3143-1.3958 2.9085-2.0957 4.7869-2.0957.8665 0 1.6748.1608 2.4341.4776.7585.3159 1.458.7975 2.1044 1.431z"/><path d="m67.7024 12.9207h3.603v1.6591c.6189-.6728 1.3051-1.1767 2.0645-1.5065.7535-.3356 1.5801-.5005 2.474-.5005.8989 0 1.7163.219 2.4391.6564.7269.4365 1.3093 1.079 1.7521 1.9176.5732-.8386 1.2777-1.4811 2.1134-1.9176.8358-.4374 1.7521-.6564 2.7407-.6564 1.0252 0 1.9282.2363 2.705.7056.7817.4677 1.3367 1.0831 1.6798 1.8372.339.7582.5109 1.989.5109 3.6932v8.3219h-3.6038v-7.1805c0-1.6058-.2027-2.6938-.614-3.26-.4112-.567-1.0301-.8517-1.8476-.8517-.6272 0-1.1871.174-1.6798.521-.496.3438-.8673.8255-1.1066 1.436-.2384.6121-.3605 1.5926-.3605 2.949v6.3862h-3.6039v-6.8547c0-1.267-.0947-2.1851-.2891-2.7521-.1894-.5711-.4785-.9904-.8582-1.271-.3829-.2766-.849-.4144-1.3907-.4144-.6047 0-1.1555.174-1.6482.526-.4968.352-.8623.8435-1.1107 1.4761-.2443.6335-.3664 1.632-.3664 2.9933v6.2968h-3.603z"/><path d="m100.044 15.8344c-1.1197 0-2.051.3881-2.7862 1.1685-.7411.7762-1.1107 1.7748-1.1107 2.9925 0 1.2267.3746 2.2351 1.129 3.0286.7526.7901 1.6789 1.1865 2.7809 1.1865 1.134 0 2.077-.3881 2.823-1.1685.75-.7762 1.125-1.797 1.125-3.0598 0-1.2357-.375-2.2343-1.125-3.0023-.746-.7623-1.694-1.1455-2.836-1.1455zm3.797-2.9178h3.604v14.2109h-3.604v-1.5123c-.704.6606-1.413 1.1332-2.122 1.4228-.71.2905-1.48.4382-2.3079.4382-1.8642 0-3.4717-.7098-4.8317-2.1326-1.3583-1.4187-2.0362-3.1845-2.0362-5.2941 0-2.19.6588-3.9837 1.9731-5.3843 1.3142-1.3958 2.9093-2.0957 4.786-2.0957.8677 0 1.6767.1608 2.4337.4776.76.3159 1.459.7975 2.105 1.431z"/><path d="m111.086 12.9207h3.604v1.463c.816-.6778 1.563-1.1455 2.226-1.413.663-.2642 1.345-.3979 2.042-.3979 1.425 0 2.641.4906 3.634 1.472.835.8386 1.255 2.0735 1.255 3.7072v9.3787h-3.575v-6.2123c0-1.6944-.078-2.8185-.231-3.3724-.154-.5571-.425-.9813-.804-1.271-.383-.2904-.859-.4365-1.418-.4365-.731 0-1.359.2404-1.883.7221-.524.4816-.886 1.1512-1.089 1.998-.104.4463-.157 1.4047-.157 2.8817v5.6904h-3.604z"/><path d="m127.347 12.9174h3.657v6.8334c0 1.3293.095 2.2524.281 2.7694.185.5177.482.919.894 1.2094.411.2848.921.4275 1.522.4275s1.115-.1427 1.535-.4234c.421-.2806.732-.6958.935-1.2439.149-.4103.226-1.285.226-2.6224v-6.95h3.603v6.0129c0 2.4797-.198 4.1749-.595 5.089-.483 1.1151-1.203 1.9668-2.145 2.5642-.944.594-2.145.8927-3.6.8927-1.581 0-2.853-.3487-3.83-1.0437-.976-.6958-1.662-1.6641-2.059-2.908-.284-.8608-.424-2.4263-.424-4.6968z"/></g></svg>

<svg width="140" height="34" viewBox="0 0 140 34" fill="none" xmlns="http://www.w3.org/2000/svg">
<path fill-rule="evenodd" clip-rule="evenodd" d="M15.6077 5.41948H18.416V8.29321H21.2247V11.1669H18.416V14.0406H15.6077V11.1669H12.7993V8.29321H15.6077V5.41948Z" fill="#326699"/>
<path fill-rule="evenodd" clip-rule="evenodd" d="M9.48658 9.55986C9.48658 11.5979 10.251 13.6725 11.7063 15.349C13.0132 16.8547 14.5269 18.3478 16.0407 19.8413L17.0127 20.8013L17.9851 19.8413C19.4985 18.3478 21.0122 16.8547 22.3191 15.349C23.7744 13.6725 24.5388 11.5975 24.5388 9.55986C24.5388 7.63395 23.8456 5.73597 22.3941 4.25072C20.9088 2.73046 18.9605 1.96993 17.0127 1.96993C15.0648 1.96993 13.117 2.73046 11.6313 4.25072C10.1802 5.73597 9.48658 7.63395 9.48658 9.55986ZM17.0127 23.5574C14.7653 21.257 12.2665 18.9573 10.2702 16.6576C6.77243 12.6287 6.54596 6.66844 10.2702 2.85793C13.994 -0.952576 20.0314 -0.952576 23.7556 2.85793C27.4794 6.66844 27.2529 12.6283 23.7556 16.6576C21.7585 18.9573 19.2601 21.257 17.0127 23.5574Z" fill="#FFCC00"/>
<path fill-rule="evenodd" clip-rule="evenodd" d="M19.4515 27.5939L18.513 26.5037C19.3135 26.5368 20.0598 25.8297 20.8422 26.4628C22.0042 27.4031 23.2192 28.0767 25.8722 28.5673C26.3109 28.6484 25.6296 29.1862 23.4107 29.0021C21.5443 28.8475 23.5595 29.4077 21.2133 29.1854C20.3978 29.1079 20.8342 29.3019 22.3249 29.5899C23.0719 29.7343 22.8082 30.4024 18.7479 30.1454C15.9933 29.9715 15.472 30.0687 11.855 30.2249C10.6404 30.2772 8.70252 29.7229 10.7184 29.3062C11.8292 29.0768 8.01196 28.8329 8.01196 28.5241C8.01196 28.2065 9.89215 27.8103 10.7284 27.5511C12.3037 27.0624 13.6064 26.3239 14.1962 25.8589C16.2886 24.2087 16.7735 26.2255 19.4515 27.5939Z" fill="#326699"/>
<path fill-rule="evenodd" clip-rule="evenodd" d="M31.358 28.9566C33.0425 29.4252 34.0187 29.9819 34.0187 30.5791C34.0187 32.2477 26.403 33.6 17.0094 33.6C7.61534 33.6 0 32.2477 0 30.5791C0 29.9819 0.97662 29.4252 2.66071 28.9566C1.8079 29.2772 1.33305 29.6321 1.33305 30.0051C1.33305 31.4412 8.35165 32.6054 17.0094 32.6054C25.6671 32.6054 32.6857 31.4412 32.6857 30.0051C32.6857 29.6321 32.2112 29.2772 31.358 28.9566Z" fill="#FFCC00"/>
<path fill-rule="evenodd" clip-rule="evenodd" d="M28.4891 28.7795C29.8364 29.0904 30.6173 29.4594 30.6173 29.8548C30.6173 30.9604 24.5245 31.8567 17.0091 31.8567C9.49376 31.8567 3.40063 30.9604 3.40063 29.8548C3.40063 29.4594 4.18193 29.0904 5.5296 28.7795C4.84711 28.9924 4.46723 29.2273 4.46723 29.4748C4.46723 30.4265 10.0824 31.1977 17.0091 31.1977C23.9359 31.1977 29.5511 30.4265 29.5511 29.4748C29.5511 29.2273 29.1708 28.9924 28.4891 28.7795Z" fill="#FFCC00"/>
<path d="M42.1642 7.67574H45.7672V12.9206H47.9081V15.9985H45.7672V27.1307H42.1642V15.9985H40.3215V12.9206H42.1642V7.67574Z" fill="#326699"/>
<path d="M56.6909 15.8344C55.571 15.8344 54.6406 16.2225 53.9045 17.0029C53.1643 17.7791 52.7938 18.7777 52.7938 19.9954C52.7938 21.2221 53.1685 22.2305 53.9228 23.024C54.6771 23.8141 55.6026 24.2105 56.705 24.2105C57.8382 24.2105 58.7819 23.8223 59.5271 23.042C60.2765 22.2658 60.652 21.245 60.652 19.9822C60.652 18.7465 60.2765 17.7479 59.5271 16.9799C58.7819 16.2176 57.8332 15.8344 56.6909 15.8344ZM60.4892 12.9166H64.093V27.1275H60.4892V25.6152C59.7847 26.2758 59.0752 26.7484 58.3666 27.038C57.6579 27.3285 56.8853 27.4762 56.0587 27.4762C54.1936 27.4762 52.5861 26.7664 51.227 25.3436C49.8678 23.9249 49.1899 22.1591 49.1899 20.0495C49.1899 17.8595 49.8496 16.0658 51.1638 14.6652C52.4781 13.2694 54.0723 12.5695 55.9507 12.5695C56.8172 12.5695 57.6255 12.7303 58.3848 13.0471C59.1433 13.363 59.8428 13.8446 60.4892 14.4781V12.9166Z" fill="#326699"/>
<path d="M67.7024 12.9207H71.3054V14.5798C71.9243 13.907 72.6105 13.4031 73.3699 13.0733C74.1234 12.7377 74.95 12.5728 75.8439 12.5728C76.7428 12.5728 77.5602 12.7918 78.283 13.2292C79.0099 13.6657 79.5923 14.3082 80.0351 15.1468C80.6083 14.3082 81.3128 13.6657 82.1485 13.2292C82.9843 12.7918 83.9006 12.5728 84.8892 12.5728C85.9144 12.5728 86.8174 12.8091 87.5942 13.2784C88.3759 13.7461 88.9309 14.3615 89.274 15.1156C89.613 15.8738 89.7849 17.1046 89.7849 18.8088V27.1307H86.1811V19.9502C86.1811 18.3444 85.9784 17.2564 85.5671 16.6902C85.1559 16.1232 84.537 15.8385 83.7195 15.8385C83.0923 15.8385 82.5324 16.0125 82.0397 16.3595C81.5437 16.7033 81.1724 17.185 80.9331 17.7955C80.6947 18.4076 80.5726 19.3881 80.5726 20.7445V27.1307H76.9687V20.276C76.9687 19.009 76.874 18.0909 76.6796 17.5239C76.4902 16.9528 76.2011 16.5335 75.8214 16.2529C75.4385 15.9763 74.9724 15.8385 74.4307 15.8385C73.826 15.8385 73.2752 16.0125 72.7825 16.3645C72.2857 16.7165 71.9202 17.208 71.6718 17.8406C71.4275 18.4741 71.3054 19.4726 71.3054 20.8339V27.1307H67.7024V12.9207Z" fill="#326699"/>
<path d="M100.044 15.8344C98.9243 15.8344 97.993 16.2225 97.2578 17.0029C96.5167 17.7791 96.1471 18.7777 96.1471 19.9954C96.1471 21.2221 96.5217 22.2305 97.2761 23.024C98.0287 23.8141 98.955 24.2105 100.057 24.2105C101.191 24.2105 102.134 23.8224 102.88 23.042C103.63 22.2658 104.005 21.245 104.005 19.9822C104.005 18.7465 103.63 17.7479 102.88 16.9799C102.134 16.2176 101.186 15.8344 100.044 15.8344ZM103.841 12.9166H107.445V27.1275H103.841V25.6152C103.137 26.2758 102.428 26.7484 101.719 27.038C101.009 27.3285 100.239 27.4762 99.4111 27.4762C97.5469 27.4762 95.9394 26.7664 94.5794 25.3436C93.2211 23.9249 92.5432 22.1591 92.5432 20.0495C92.5432 17.8595 93.202 16.0658 94.5163 14.6652C95.8305 13.2694 97.4256 12.5695 99.3023 12.5695C100.17 12.5695 100.979 12.7303 101.736 13.0471C102.496 13.363 103.195 13.8446 103.841 14.4781V12.9166Z" fill="#326699"/>
<path d="M111.086 12.9207H114.69V14.3837C115.506 13.7059 116.253 13.2382 116.916 12.9707C117.579 12.7065 118.261 12.5728 118.958 12.5728C120.383 12.5728 121.599 13.0634 122.592 14.0448C123.427 14.8834 123.847 16.1183 123.847 17.752V27.1307H120.272V20.9184C120.272 19.224 120.194 18.0999 120.041 17.546C119.887 16.9889 119.616 16.5647 119.237 16.275C118.854 15.9846 118.378 15.8385 117.819 15.8385C117.088 15.8385 116.46 16.0789 115.936 16.5606C115.412 17.0422 115.05 17.7118 114.847 18.5586C114.743 19.0049 114.69 19.9633 114.69 21.4403V27.1307H111.086V12.9207Z" fill="#326699"/>
<path d="M127.347 12.9174H131.004V19.7508C131.004 21.0801 131.099 22.0032 131.285 22.5202C131.47 23.0379 131.767 23.4392 132.179 23.7296C132.59 24.0144 133.1 24.1571 133.701 24.1571C134.302 24.1571 134.816 24.0144 135.236 23.7337C135.657 23.4531 135.968 23.0379 136.171 22.4898C136.32 22.0795 136.397 21.2048 136.397 19.8674V12.9174H140V18.9303C140 21.41 139.802 23.1052 139.405 24.0193C138.922 25.1344 138.202 25.9861 137.26 26.5835C136.316 27.1775 135.115 27.4762 133.66 27.4762C132.079 27.4762 130.807 27.1275 129.83 26.4325C128.854 25.7367 128.168 24.7684 127.771 23.5245C127.487 22.6637 127.347 21.0982 127.347 18.8277V12.9174Z" fill="#326699"/>
</svg>
